svg/ember.svg

<svg viewBox="0 0 20 20" xmlns="http://www.w3.org/2000/svg">
<rect width="100%" height="100%" fill="#E05C43"/>
<path fill-rule="evenodd" clip-rule="evenodd" d="M8.5039 10.1714C8.58369 6.94981 10.6957 5.54349 11.4287 6.24665C12.1618 6.94981 11.8875 8.46584 10.5062 9.41336C9.12477 10.3609 8.51138 10.1614 8.51138 10.1614L8.5039 10.1714ZM10.5062 13.4378C8.63107 13.4852 8.82805 12.2534 8.82805 12.2534C8.82805 12.2534 15.6776 9.90956 13.815 5.2717C12.9722 4.09728 11.9948 3.72326 10.6283 3.75069C9.26192 3.77812 7.53394 4.61592 6.42435 7.10939C5.9948 8.11896 5.71911 9.18724 5.60649 10.2786C5.60649 10.2786 4.39466 10.5279 3.74387 9.98187C3.09307 9.4358 2.74648 9.98187 2.74648 9.98187C2.74648 9.98187 1.6294 11.2909 2.74648 11.7273C3.86355 12.1637 5.58405 12.2459 5.58405 12.2459C5.74114 13.4004 6.13261 14.5075 7.55638 15.4326C9.94513 16.986 13.4859 15.3378 13.4859 15.3378C15.0556 14.6732 16.4626 13.6762 17.6101 12.4155C17.7027 12.3121 17.7527 12.1774 17.7499 12.0385C17.7471 11.8997 17.6918 11.7671 17.5951 11.6675L16.9044 10.9493C16.808 10.8494 16.6777 10.7894 16.5391 10.7811C16.4006 10.7728 16.264 10.8168 16.1564 10.9045C15.2338 11.6525 12.8051 13.4503 10.4962 13.4503" fill="#FEFEFE"/>
</svg>

<svg xmlns="http://www.w3.org/2000/svg" viewBox="0 0 20 20">
  <rect width="100%" height="100%" fill="#E05C43"/>
  <path fill="#FEFEFE" fill-rule="evenodd" d="M8.5 10.17c.08-3.22 2.2-4.63 2.93-3.92.73.7.46 2.22-.92 3.16-1.39.95-2 .75-2 .75v.01Zm2 3.27c-1.87.05-1.67-1.19-1.67-1.19s6.85-2.34 4.98-6.98C12.97 4.1 12 3.72 10.63 3.75c-1.37.03-3.1.87-4.2 3.36-.44 1-.71 2.08-.82 3.17 0 0-1.22.25-1.87-.3-.65-.54-1 0-1 0s-1.11 1.31 0 1.75c1.12.43 2.84.52 2.84.52a4.1 4.1 0 0 0 1.98 3.18c2.39 1.56 5.93-.1 5.93-.1a11.8 11.8 0 0 0 4.12-2.91.55.55 0 0 0-.01-.75l-.7-.72a.55.55 0 0 0-.74-.05c-.93.75-3.35 2.55-5.66 2.55" clip-rule="evenodd"/>
</svg>
